images/logos/nba.svg

<svg xmlns="http://www.w3.org/2000/svg" width="100" height="50" fill="none"><path fill="#fff" d="M44.588 38.633h-3.27V10.709h5.052l3.382 23.026c-.508-5.477-1.17-14.312-1.17-18.959V10.71h3.27v27.915h-4.63l-3.107-22.36c.275 5.002.465 10.99.465 14.347v8.022l.008-.001ZM57.463 26.51v8.6h.62c1.17 0 1.515-.665 1.515-1.99v-4.733c0-1.367-.43-1.877-1.67-1.877h-.465Zm0-12.279v9.224h.465c1.326 0 1.67-.51 1.67-2.033v-5.313c0-1.29-.387-1.878-1.515-1.878h-.62Zm-3.735 24.402V10.709h4.63c3.073 0 4.975 1.68 4.975 5.59v4.11c0 2.544-.775 3.834-1.868 4.5 1.085.7 1.868 1.956 1.868 4.101v4.067c0 3.834-2.022 5.556-4.974 5.556h-4.631Zm14.425-8.411h1.98l-.31-5.123c-.121-2.033-.431-8.48-.663-11.967h-.155L68.463 25.1l-.31 5.122Zm2.177 3.167h-2.332l-.31 5.235h-3.77l2.72-27.915h5.293l2.642 27.924H70.65l-.32-5.244Z"/><path fill="#fff" fill-rule="evenodd" d="M34.854 10h-6.833C26.35 10 25 11.367 25 13.037v23.268c0 1.679 1.351 3.046 3.02 3.046h6.834c1.67 0 3.03-1.367 3.03-3.046V13.037C37.875 11.358 36.515 10 34.854 10Zm-1.695 5.373.008.096c.106.062.185.12.266.178.076.056.154.113.259.176.56.355 1.248.978 1.154 3.141.073.22.127.543.179.854.058.348.113.682.191.842l.012.024c.285.566.471.936.556 1.482 0 0 .086.848.19.909.435.098.448.157.462.22.004.02.009.042.028.065.028.037.083.062.144.09.126.056.277.125.277.334.112.156.198.32.267.485V13.037a2.312 2.312 0 0 0-2.306-2.319h-2.212c.353.13.55.277.671.51.284.027.628.667.095 1.619.211.141.08.348-.074.592l-.046.074-.025.046c-.046.086-.104.195-.234.188-.198.424-.439.839-.628.865-.052.07-.095.25-.009.337.284.104.611.277.775.424ZM37.16 25.8l-.008.02v-.02h.008Zm-.008.02a2.062 2.062 0 0 1-3.813.01 2.057 2.057 0 0 1-.154-.791c0-.978.671-1.791 1.575-2.016-.167-.415-.46-1.01-.671-1.44-.093-.19-.171-.35-.216-.447-.138-.311-.482-2.283-.55-2.674-.018-.086-.887.511-.887.546-.052.052-.654 1.635-.68 1.722-.009.051-.017.268-.017.268s.292.034.465.554c.172.519.68 2.414.68 2.414s-.138.147-.147.138c.38 1.273.461 2.125.52 2.74.041.444.072.765.194 1.033.196.48.314.672.43.86.103.167.204.33.354.689.129.32.267 1.184.377 1.874.08.504.146.915.183.956.352.45.541.795.541 1.046 0 .087-.036.234-.079.408-.08.328-.183.749-.111 1.037.025.094.046.228.067.367.038.245.077.505.149.577 0 0 .112.216.052.311l-.002.003c-.016.035-.04.085-.033.118.03.102.068.215.11.335.236.687.557 1.617-.308 2.14h.026a2.31 2.31 0 0 0 1.945-2.293V25.82Zm-2.755 9.543c-.045.11-.104.253.165.492-.008.47-.057.872-.099 1.216-.095.78-.153 1.26.391 1.554h-6.833c-1.274 0-2.307-1.048-2.307-2.328V13.03a2.314 2.314 0 0 1 2.307-2.321h3.924c-.748.295-.86.623-.887 1.67a.46.46 0 0 1-.061-.002c-.135-.008-.32-.02-.239.53 0 0 .043.425.215.355-.024.166-.04.31-.055.433-.082.717-.09.786-1.081.83l-.06.087c-.098.01-.191.017-.279.024-.949.078-1.327.11-2.217 1.931 0 0-.25.614-.327.874-.038.08-.085.175-.138.281-.278.565-.716 1.453-.861 2.064a1.43 1.43 0 0 1-.043.154c-.047.143-.082.253.035.521.052.12.072.219.087.3.051.263.065.333 1.066.306v.303s-.353.303-.422.484c-.077.182-.275 1.091-.267 1.515.015.64.319 1.224.627 1.816.23.44.46.883.578 1.359l.603.087c.344.778 1.816 2.881 2.117 3.158.043.12.203.258.372.405.102.088.207.179.291.27l.109.11c.343.352 1.296 1.33 2.387 1.958-.003 0 .015.039.043.103.065.144.186.416.258.65-.242.189-.08.474.15.874.17.298.375.659.478 1.09.005.035-.01.072-.027.114Z" clip-rule="evenodd"/></svg>

<?xml version="1.0" encoding="UTF-8"?>
<svg width="100px" height="50px" viewBox="0 0 100 50" version="1.1" xmlns="http://www.w3.org/2000/svg" xmlns:xlink="http://www.w3.org/1999/xlink">
    <!-- Generator: Sketch 59.1 (86144) - https://sketch.com -->
    <title>nba</title>
    <desc>Created with Sketch.</desc>
    <g id="Page-1" stroke="none" stroke-width="1" fill="none" fill-rule="evenodd">
        <g id="Artboard" fill-rule="nonzero">
            <g id="nba">
                <path d="M44.588,38.633 L41.318,38.633 L41.318,10.709 L46.37,10.709 L49.752,33.735 C49.244,28.258 48.582,19.423 48.582,14.776 L48.582,10.71 L51.852,10.71 L51.852,38.625 L47.222,38.625 L44.115,16.265 C44.39,21.267 44.58,27.255 44.58,30.612 L44.58,38.634 L44.588,38.634 L44.588,38.633 Z M57.463,26.51 L57.463,35.11 L58.083,35.11 C59.253,35.11 59.598,34.445 59.598,33.12 L59.598,28.387 C59.598,27.02 59.168,26.51 57.928,26.51 L57.463,26.51 L57.463,26.51 Z M57.463,14.231 L57.463,23.455 L57.928,23.455 C59.254,23.455 59.598,22.945 59.598,21.422 L59.598,16.109 C59.598,14.819 59.211,14.231 58.083,14.231 L57.463,14.231 L57.463,14.231 Z M53.728,38.633 L53.728,10.709 L58.358,10.709 C61.431,10.709 63.333,12.389 63.333,16.299 L63.333,20.409 C63.333,22.953 62.558,24.243 61.465,24.909 C62.55,25.609 63.333,26.865 63.333,29.01 L63.333,33.077 C63.333,36.911 61.311,38.633 58.359,38.633 L53.729,38.633 L53.728,38.633 Z M68.153,30.222 L70.133,30.222 L69.823,25.099 C69.702,23.066 69.392,16.619 69.16,13.132 L69.005,13.132 L68.463,25.1 L68.153,30.223 L68.153,30.222 Z M70.33,33.389 L67.998,33.389 L67.688,38.624 L63.918,38.624 L66.638,10.709 L71.931,10.709 L74.573,38.633 L70.65,38.633 L70.331,33.389 L70.33,33.389 Z" id="Shape" fill="#1D428A"></path>
                <path d="M34.854,10 L28.021,10 C26.35,10 25,11.367 25,13.037 L25,36.305 C25,37.984 26.351,39.351 28.02,39.351 L34.854,39.351 C36.524,39.351 37.884,37.984 37.884,36.305 L37.884,13.037 C37.875,11.358 36.515,10 34.854,10" id="Path" fill="#FFFFFF"></path>
                <path d="M33.159,15.373 L33.167,15.469 C33.374,15.589 33.477,15.694 33.692,15.823 C34.252,16.178 34.94,16.801 34.846,18.964 C35.001,19.432 35.069,20.357 35.216,20.66 C35.508,21.24 35.698,21.612 35.784,22.166 C35.784,22.166 35.87,23.014 35.974,23.075 C36.55,23.205 36.386,23.265 36.464,23.36 C36.55,23.473 36.885,23.473 36.885,23.784 C36.997,23.94 37.083,24.104 37.152008,24.269 L37.152008,13.037 C37.1553185,11.759953 36.1230455,10.7218605 34.846,10.718 L32.634,10.718 C32.987,10.848 33.184,10.995 33.305,11.228 C33.589,11.255 33.933,11.895 33.4,12.847 C33.632,13.002 33.451,13.237 33.28,13.513 C33.228,13.6 33.176,13.755 33.021,13.747 C32.823,14.171 32.582,14.586 32.393,14.612 C32.341,14.682 32.298,14.862 32.384,14.949 C32.668,15.053 32.995,15.226 33.159,15.373 M37.16,25.8 C36.8498317,26.5882824 36.0891089,27.1066686 35.242,27.107 C34.6945384,27.1070078 34.1696585,26.8887795 33.7835784,26.5006348 C33.3974983,26.1124901 33.1820724,25.5864537 33.185,25.039 C33.185,24.061 33.856,23.248 34.76,23.023 C34.519,22.426 34.02,21.456 33.873,21.136 C33.735,20.825 33.391,18.852 33.323,18.462 C33.305,18.376 32.436,18.973 32.436,19.008 C32.384,19.06 31.782,20.643 31.756,20.73 C31.747,20.781 31.739,20.998 31.739,20.998 C31.739,20.998 32.031,21.032 32.204,21.552 C32.376,22.071 32.884,23.966 32.884,23.966 C32.884,23.966 32.746,24.113 32.737,24.104 C33.391,26.294 33.159,27.237 33.451,27.877 C33.821,28.785 33.916,28.664 34.235,29.426 C34.458,29.98 34.708,32.16 34.795,32.256 C35.147,32.706 35.336,33.051 35.336,33.302 C35.336,33.553 35.036,34.306 35.146,34.747 C35.216,35.007 35.25,35.578 35.362,35.691 C35.362,35.691 35.474,35.907 35.414,36.002 C35.397,36.037 35.371,36.089 35.379,36.123 C35.577,36.807 36.197,37.983 35.181,38.598 L35.207,38.598 C36.3321288,38.417974 37.157926,37.4444248 37.152,36.305 L37.152,25.8 L37.161,25.8 L37.16,25.8 Z" id="Shape" fill="#C8102E"></path>
                <path d="M34.562,35.855 C34.192,35.526 34.442,35.379 34.424,35.249 C34.183,34.237 33.374,33.614 33.796,33.285 C33.692,32.948 33.486,32.532 33.495,32.532 C32.247,31.814 31.179,30.637 30.999,30.464 C30.775,30.222 30.405,29.98 30.336,29.789 C30.035,29.512 28.563,27.409 28.219,26.631 L27.616,26.544 C27.341,25.428 26.437,24.485 26.411,23.369 C26.403,22.945 26.601,22.036 26.678,21.854 C26.747,21.673 27.1,21.37 27.1,21.37 L27.1,21.067 C25.792,21.102 26.17,20.972 25.947,20.461 C25.792,20.107 25.904,20.029 25.955,19.786 C26.127,19.06 26.713,17.943 26.954,17.441 C27.031,17.181 27.281,16.567 27.281,16.567 C28.253,14.577 28.615,14.724 29.777,14.612 L29.837,14.525 C30.999,14.473 30.809,14.387 30.973,13.262 C30.801,13.332 30.758,12.907 30.758,12.907 C30.663,12.267 30.93,12.388 31.058,12.379 C31.085,11.332 31.197,11.004 31.945,10.709 L28.021,10.709 C27.407206,10.7105885 26.8192125,10.9560791 26.3865081,11.3914093 C25.9538036,11.8267396 25.711875,12.4162077 25.7139861,13.03 L25.7139861,36.297 C25.7139861,37.577 26.747,38.625 28.021,38.625 L34.854,38.625 C34.071,38.201 34.536,37.396 34.562,35.856 L34.562,35.855 Z" id="Path" fill="#1D428A"></path>
            </g>
        </g>
    </g>
</svg>
